!!!COM: Palestrina, Giovanni Perluigi da
!!!OPR: Tu es pastor ovium
!!!OTL: Benedictus
**kern	**kern	**kern	**kern
*Itenor	*Icalto	*Icant	*Icant
!Tenor	!Altus	!Cantus 2	!Cantus 1
*clefGv2	*clefG2	*clefG2	*clefG2
*k[b-]	*k[b-]	*k[b-]	*k[b-]
*G:dor	*G:dor	*G:dor	*G:dor
*M4/2	*M4/2	*M4/2	*M4/2
=1	=1	=1	=1
0r	0d	0r	1r
.	.	.	1a
=2	=2	=2	=2
0r	1f	0r	1a
.	1e	.	1cc#
=3	=3	=3	=3
0r	2d	0r	0dd
.	2f	.	.
.	4g	.	.
.	4a	.	.
.	4b-	.	.
.	4g	.	.
=4	=4	=4	=4
0r	4a	0r	1cc
.	4g	.	.
.	4f	.	.
.	4e	.	.
.	4d	.	4dd
.	4c	.	4ee
.	2d	.	4ff
.	.	.	4dd
=5	=5	=5	=5
0r	2c	0r	4ee
.	.	.	4dd
.	2e	.	4cc
.	.	.	4b-
.	2f	.	2a
.	[2g	.	2g
=6	=6	=6	=6
0d	2g]	1r	1a
.	4f	.	.
.	4e	.	.
.	2.f	1a	1dd
.	4e	.	.
=7	=7	=7	=7
1f	1d	1a	2r
.	.	.	2a
1e	1A	1cc#	2a
.	.	.	2a
=8	=8	=8	=8
2d	4B-	0dd	2f
.	4c	.	.
2B-	4d	.	2b-
.	4e	.	.
4d	1f	.	2.a
4e	.	.	.
4f	.	.	.
4d	.	.	4f
=9	=9	=9	=9
2e	2r	1cc	2g
2f	2f	.	2a
1d	4f	4dd	1f
.	4g	4ee	.
.	4a	4ff	.
.	4b-	4dd	.
=10	=10	=10	=10
1c	4cc	4ee	0r
.	4b-	4dd	.
.	4a	4cc	.
.	4g	4b-	.
2d	2f	2a	.
2e-	[2g	2g	.
=11	=11	=11	=11
1d	2g]	1a	0dd
.	2f#	.	.
[1G	2g	2b-	.
.	[2g	[2dd	.
=12	=12	=12	=12
1G]	2g]	2dd]	1b-
.	2g	2dd	.
1r	1d	1ff#	1a
=13	=13	=13	=13
2r	2e	1gg	1g
2c	2e	.	.
4d	4f	1r	1r
4e	4g	.	.
4f	4a	.	.
4d	4b-	.	.
=14	=14	=14	=14
4e	2cc	1r	0r
4f	.	.	.
2g	2b-	.	.
2f	4a	1cc	.
.	4b-	.	.
2e	[2cc	.	.
=15	=15	=15	=15
1d	2cc]	4dd	1r
.	.	4ee	.
.	2b	4ff	.
.	.	4dd	.
1c	1cc	4ee	2r
.	.	4ff	.
.	.	2gg	2g
=16	=16	=16	=16
0r	2r	2ff	4a
.	.	.	4b-
.	2c	2ee	4cc
.	.	.	4a
.	2g	4dd	4b-
.	.	4ee	4cc
.	2d	4ff	[2dd
.	.	4dd	.
=17	=17	=17	=17
1r	1a	1ee	2dd]
.	.	.	2cc#
[1d	[1a	1dd	2dd
.	.	.	[2ff
=18	=18	=18	=18
1d]	1a]	2r	4ff]
.	.	.	4ee
.	.	1ff	2dd
1f	1a	.	2cc
.	.	2ff	[2dd
=19	=19	=19	=19
1e	1g	1gg	2dd]
.	.	.	2cc#
1d	2a	2ff	1dd
.	2f	2dd	.
=20	=20	=20	=20
1r	4g	4dd	1r
.	4a	4cc	.
.	4b-	4dd	.
.	4g	4ee	.
2r	2a	4ff	2r
.	.	4ee	.
2G	[2b-	4dd	2dd
.	.	4cc	.
=21	=21	=21	=21
4G	4b-]	1b-	4dd
4A	4a	.	4cc
4B-	2g	.	4dd
4c	.	.	4ee
[1d	[1f	2a	4ff
.	.	.	4ee
.	.	[2dd	4dd
.	.	.	4cc
=22	=22	=22	=22
1d]	1f]	4dd]	4b-
.	.	4cc	4a
.	.	1b-	1dd
1e-	1g	.	.
.	.	4a	2cc
.	.	4g	.
=23	=23	=23	=23
0d	2a	2f	[0dd
.	1g	2b-	.
.	.	1a	.
.	2f	.	.
=24	=24	=24	=24
2r	1b-	2g	1dd]
2G	.	2dd	.
2.d	1a	2.ff	2r
.	.	.	2dd
4c	.	4ee	.
=25	=25	=25	=25
2B-	0r	2dd	2.ff
2.d	.	2.ff	.
.	.	.	4ee
.	.	.	2dd
4c	.	4ee	.
4B-	.	4dd	[2ff
4A	.	4cc	.
=26	=26	=26	=26
1B-	0r	4dd	4ff]
.	.	4cc	4ee
.	.	4b-	4dd
.	.	4a	4cc
1G	.	4b-	4dd
.	.	4a	4cc
.	.	4g	4b-
.	.	4f	4a
=27	=27	=27	=27
4G	1r	2g	2b-
4A	.	.	.
4B-	.	2g	2b-
4c	.	.	.
1d	2r	2f#	1a
.	2a	2f#	.
=28	=28	=28	=28
0r	2.b-	2.g	2r
.	.	.	2dd
.	4a	4a	.
.	2g	2b-	2.dd
.	[2b-	[2g	.
.	.	.	4cc
=29	=29	=29	=29
0r	4b-]	4g]	2dd
.	4a	4a	.
.	4g	2.b-	2.ee-
.	4f	.	.
.	4g	.	.
.	4f	4a	4dd
.	4e-	4g	[2dd
.	4d	4f	.
=30	=30	=30	=30
1r	2e-	2g	2dd]
.	2e-	2g	2cc
2r	1d	[1a	1dd
2d	.	.	.
=31	=31	=31	=31
2.f	2r	1a]	2r
.	2d	.	2a
4e	.	.	.
2d	2.f	2r	2.a
[2f	.	2dd	.
.	4e	.	4g
=32	=32	=32	=32
4f]	2d	2.ff	2a
4e	.	.	.
4d	2.f	.	2.b-
4c	.	4ee	.
4d	.	2dd	.
4c	4e	.	4a
4B-	4d	[2ff	[2a
4A	4c	.	.
=33	=33	=33	=33
2B-	1d	4ff]	4a]
.	.	4ee	4g
2B-	.	1dd	4g
.	.	.	8f
.	.	.	8g
1A	2.e	.	2a
.	.	2cc#	2a
.	4e	.	.
=34	=34	=34	=34
2r	1d	2dd	1f
2B-	.	2dd	.
2.d	1r	2.ff	2r
.	.	.	2dd
4c	.	4ee	.
=35	=35	=35	=35
2B-	0r	2dd	2.ff
2.d	.	2.ff	.
.	.	.	4ee
.	.	.	2dd
4c	.	4ee	.
4B-	.	4dd	[2ff
4A	.	4cc	.
=36	=36	=36	=36
1.B-	0r	4dd	4ff]
.	.	4cc	4ee
.	.	4b-	4dd
.	.	4a	4cc
.	.	2b-	2dd
4c	.	[2a	2cc
4d	.	.	.
=37	=37	=37	=37
2e-	1r	4a]	2b-
.	.	4g	.
2e-	.	1g	4a
.	.	.	4g
1d	2r	.	2a
.	2a	2f#	2dd
=38	=38	=38	=38
[0G	2.b-	0g	2.dd
.	4a	.	4cc
.	2g	.	2b-
.	[2b-	.	[2dd
=39	=39	=39	=39
1G]	4b-]	1.dd	4dd]
.	4a	.	4cc
.	4g	.	4b-
.	4f#	.	4a
1G	2g	.	2b-
.	2g	2dd	2b-
=40	=40	=40	=40
0d	0f#	0dd	0a
*-	*-	*-	*-
!! Hosanna
**kern	**kern	**kern	**kern	**kern
*Ibass	*Itenor	*Itenor	*Icalto	*Icant
!Bassus	!Tenor 2	!Tenor 1	!Altus	!Cantus
*clefF4	*clefGv2	*clefGv2	*clefG2	*clefG2
*k[b-]	*k[b-]	*k[b-]	*k[b-]	*k[b-]
*G:dor	*G:dor	*G:dor	*G:dor	*G:dor
*M4/2	*M4/2	*M4/2	*M4/2	*M4/2
=41	=41	=41	=41	=41
0r	1r	1r	0r	1dd
.	1a	1d	.	[1ff
=42	=42	=42	=42	=42
0r	1.a	1.f	0r	2ff]
.	.	.	.	2ee
.	.	.	.	2dd
.	2g	2e	.	2cc
=43	=43	=43	=43	=43
0r	2f	2d	0r	2b-
.	2e	2c	.	2a
.	2d	2B-	.	2g
.	2c	2A	.	2cc
=44	=44	=44	=44	=44
0r	2d	2G	0r	2b-
.	2e-	2.c	.	2.a
.	[1d	.	.	.
.	.	4B-	.	4g
.	.	4B-	.	[2g
.	.	8A	.	.
.	.	8G	.	.
=45	=45	=45	=45	=45
1D	1d]	1A	1a	2g]
.	.	.	.	2f#
[1d	2r	1G	[1b-	1g
.	2d	.	.	.
=46	=46	=46	=46	=46
2d]	2f	0r	2b-]	0r
2c	2e	.	2a	.
2B-	2d	.	2g	.
2A	2c	.	2f	.
=47	=47	=47	=47	=47
2G	2B-	1d	2g	0r
2F#	2A	.	2a	.
2G	2G	2d	2b-	.
2F	[2c	2f	[2a	.
=48	=48	=48	=48	=48
2C	4c]	2e-	4a]	0r
.	4B-	.	4g	.
2E-	2G	2c	1g	.
1D	1A	[1d	.	.
.	.	.	2f#	.
=49	=49	=49	=49	=49
1G	1B-	2d]	2g	1dd
.	.	4c	1b-	.
.	.	4B-	.	.
1F	2r	1c	.	[1ff
.	2F	.	2a	.
=50	=50	=50	=50	=50
0r	2B-	2d	2b-	2ff]
.	2c	2e	2g	2ee
.	2d	2f	1r	2dd
.	2e-	[2g	.	2cc
=51	=51	=51	=51	=51
0r	1d	4g]	1r	4b-
.	.	4f	.	4a
.	.	2f	.	1dd
.	1A	1e	1a	.
.	.	.	.	2cc#
=52	=52	=52	=52	=52
2r	1G	2g	1.b-	0dd
2G	.	2d	.	.
[1B-	1r	[1d	.	.
.	.	.	2a	.
=53	=53	=53	=53	=53
2B-]	2r	2d]	2g	0r
2A	2F	2c	2f	.
2G	2G	2B-	2e-	.
2F	2A	2A	2d	.
=54	=54	=54	=54	=54
2E-	2B-	4G	0e-	0r
.	.	4A	.	.
2D	2B-	1B-	.	.
1C	1c	.	.	.
.	.	2A	.	.
=55	=55	=55	=55	=55
1BB-	1f	2B-	2d	2r
.	.	2B-	2d	2dd
1BB-	2r	[1d	[1B-	[1ff
.	2d	.	.	.
=56	=56	=56	=56	=56
1.BB-	1.f	2d]	2B-]	2ff]
.	.	2c	2c	2ee
.	.	4B-	2d	2dd
.	.	4A	.	.
2C	2e	2G	2e	2cc
=57	=57	=57	=57	=57
2D	2d	1F	1f	2b-
2F	2c	.	.	2a
2G	2B-	2r	2d	2g
2F	2A	4A	2f	[2cc
.	.	4B-	.	.
=58	=58	=58	=58	=58
1C	2G	4c	2e	4cc]
.	.	4d	.	4b-
.	1c	4e	4c	2a
.	.	4f	4d	.
1C	.	1e	4e	1g
.	.	.	4f	.
.	2B-	.	[2g	.
=59	=59	=59	=59	=59
0D	0A	1d	2g]	0dd
.	.	.	4f#	.
.	.	.	4e	.
.	.	1d	1f#	.
=60	=60	=60	=60	=60
0G	0G	0d	0g	0b
==	==	==	==	==
*-	*-	*-	*-	*-
!!!CDT: 1525/^1526/-1594/2/2
!!!OCY: Italia
!!!AGN: Mass (Parody)
!!!AST: renaissance, vocal
!!!ASW: Motet (Palestrina)
!!!PWK: Masses, Book 7
!!!RNB: Cadence finals: D
!!!YOR: Le Opere Complete, v. 23, p. 115
!!!YOO: Rome, Italy: Fratelli Scalera
!!!END: 1992//
!!!EED: John Miller
!!!YEC: Copyright 2000, John Miller
!!!YEN: United States of America
!!!YEM: Rights to all derivative electronic formats reserved.
!!!YEM: Refer to licensing agreement for further details.
!!!YEM: This file must be accompanied by the licensing agreement.
!!!YEM: A copy of the licensing agreement may be found at http://www.music-cog.ohio-state.edu/HumdrumDatabases/Palestrina/license.txt
!!!EMD: converted to Humdrum by Bret Aarden
